rospo-icon-theme-classic-common/symbolic/status/non-starred-symbolic.svg

<svg height="16" width="16" xmlns="http://www.w3.org/2000/svg"><path d="m8 .39-2.12 5.49-5.88.32 4.57 3.71-1.51 5.7 1.63-1.06 3.31-2.15 4.94 3.21-1.51-5.7 4.57-3.71-5.88-.32zm0 2.78 1.42 3.68 3.94.21-3.06 2.49 1.01 3.81-3.31-2.15-3.31 2.14 1.02-3.8-3.07-2.49 3.94-.21z" fill="#5294e2"/></svg>

<svg xmlns="http://www.w3.org/2000/svg" width="16" height="16" version="1.1">
 <path style="fill:#5294e2" class="warning" d="M 8,0.39 5.88,5.88 0,6.2 4.57,9.91 3.06,15.61 4.69,14.55 8,12.4 12.94,15.61 11.43,9.91 16,6.2 10.12,5.88 Z M 8,3.17 9.42,6.85 13.36,7.06 10.3,9.55 11.31,13.36 8,11.21 4.69,13.35 5.71,9.55 2.64,7.06 6.58,6.85 Z"/>
</svg>
